round/svg/text_rotation_down.svg

<svg xmlns="http://www.w3.org/2000/svg" width="24" height="24"><path fill="none" d="M0 0h24v24H0V0z"/><path fill="none" d="M0 0h24v24H0V0z"/><path fill="none" d="M0 0h24v24H0V0z"/><g fill="currentColor"><path d="M6.35 19.65l1.79-1.79c.32-.32.1-.86-.35-.86H7V5c0-.55-.45-1-1-1s-1 .45-1 1v12h-.79c-.45 0-.67.54-.35.85l1.79 1.79c.19.2.51.2.7.01zM12.2 8.5v5l-1.6.66c-.36.15-.6.5-.6.89 0 .69.71 1.15 1.34.88l8.97-3.88c.42-.18.69-.59.69-1.05 0-.46-.27-.87-.69-1.05l-8.97-3.88a.966.966 0 0 0-1.34.89c0 .39.24.74.6.89l1.6.65zm6.82 2.5L14 12.87V9.13L19.02 11z"/></g></svg>

<?xml version="1.0" encoding="utf-8"?>
<!-- Generator: Adobe Illustrator 19.1.0, SVG Export Plug-In . SVG Version: 6.00 Build 0)  -->
<svg version="1.1" xmlns="http://www.w3.org/2000/svg" xmlns:xlink="http://www.w3.org/1999/xlink" x="0px" y="0px" width="24px"
	 height="24px" viewBox="0 0 24 24" enable-background="new 0 0 24 24" xml:space="preserve">
<g id="Bounding_Boxes">
	<g id="ui_x5F_spec_x5F_header_copy_3">
	</g>
	<path fill="none" d="M0,0h24v24H0V0z"/>
	<path fill="none" d="M0,0h24v24H0V0z"/>
	<path fill="none" d="M0,0h24v24H0V0z"/>
</g>
<g id="Rounded" fill="currentColor">
	<g id="ui_x5F_spec_x5F_header_copy_5">
	</g>
	<path d="M6.35,19.65l1.79-1.79C8.46,17.54,8.24,17,7.79,17H7V5c0-0.55-0.45-1-1-1h0C5.45,4,5,4.45,5,5v12H4.21
		c-0.45,0-0.67,0.54-0.35,0.85l1.79,1.79C5.84,19.84,6.16,19.84,6.35,19.65z M12.2,8.5v5l-1.6,0.66c-0.36,0.15-0.6,0.5-0.6,0.89v0
		c0,0.69,0.71,1.15,1.34,0.88l8.97-3.88C20.73,11.87,21,11.46,21,11v0c0-0.46-0.27-0.87-0.69-1.05l-8.97-3.88
		C10.71,5.8,10,6.27,10,6.96v0c0,0.39,0.24,0.74,0.6,0.89L12.2,8.5z M19.02,11L14,12.87V9.13L19.02,11z"/>
</g>
</svg>
